icons/grid.svg

<svg xmlns="http://www.w3.org/2000/svg" width="24" height="24" viewBox="0 0 24 24">
  <path d="M9,13 C10.1045695,13 11,13.8954305 11,15 L11,19 C11,20.1045695 10.1045695,21 9,21 L5,21 C3.8954305,21 3,20.1045695 3,19 L3,15 C3,13.8954305 3.8954305,13 5,13 L9,13 Z M19,13 C20.1045695,13 21,13.8954305 21,15 L21,19 C21,20.1045695 20.1045695,21 19,21 L15,21 C13.8954305,21 13,20.1045695 13,19 L13,15 C13,13.8954305 13.8954305,13 15,13 L19,13 Z M9,3 C10.1045695,3 11,3.8954305 11,5 L11,9 C11,10.1045695 10.1045695,11 9,11 L5,11 C3.8954305,11 3,10.1045695 3,9 L3,5 C3,3.8954305 3.8954305,3 5,3 L9,3 Z M19,3 C20.1045695,3 21,3.8954305 21,5 L21,9 C21,10.1045695 20.1045695,11 19,11 L15,11 C13.8954305,11 13,10.1045695 13,9 L13,5 C13,3.8954305 13.8954305,3 15,3 L19,3 Z"/>
</svg>

<svg xmlns="http://www.w3.org/2000/svg" viewBox="0 0 24 24">
  <path d="M9 13a2 2 0 0 1 2 2v4a2 2 0 0 1-2 2H5a2 2 0 0 1-2-2v-4c0-1.1.9-2 2-2h4zm10 0a2 2 0 0 1 2 2v4a2 2 0 0 1-2 2h-4a2 2 0 0 1-2-2v-4c0-1.1.9-2 2-2h4zM9 3a2 2 0 0 1 2 2v4a2 2 0 0 1-2 2H5a2 2 0 0 1-2-2V5c0-1.1.9-2 2-2h4zm10 0a2 2 0 0 1 2 2v4a2 2 0 0 1-2 2h-4a2 2 0 0 1-2-2V5c0-1.1.9-2 2-2h4z"/>
</svg>
